symbolic/32x32/apps/celestia.svg

<svg xmlns="http://www.w3.org/2000/svg" width="32" height="32" version="1.1">
 <circle style="opacity:0.2" cx="16" cy="17" r="14"/>
 <circle style="fill:#3f3f3f" cx="16" cy="16" r="14"/>
 <path style="fill:#ffffff;opacity:0.1" d="M 16 2 A 13.999999 13.999999 0 0 0 2 16 A 13.999999 13.999999 0 0 0 2.0214844 16.585938 A 13.999999 13.999999 0 0 1 16 3 A 13.999999 13.999999 0 0 1 29.978516 16.414062 A 13.999999 13.999999 0 0 0 30 16 A 13.999999 13.999999 0 0 0 16 2 z"/>
 <circle style="opacity:0.2" cx="24.5" cy="8.5" r="7.5"/>
 <circle style="opacity:0.2" cx="27.5" cy="24.5" r="3.5"/>
 <circle style="fill:#4f4f4f" cx="27.5" cy="23.5" r="3.5"/>
 <circle style="fill:#a27a40" cx="24.5" cy="7.5" r="7.5"/>
 <circle style="opacity:0.2" cx="24.5" cy="8.5" r="4.5"/>
 <circle style="fill:#f1b100" cx="24.5" cy="7.5" r="4.5"/>
 <circle style="opacity:0.2" cx="24.5" cy="8.5" r="1.5"/>
 <circle style="fill:#ffffff" cx="24.5" cy="7.5" r="1.5"/>
 <path style="opacity:0.1;fill:#ffffff" d="M 27.5 20 A 3.4999998 3.4999998 0 0 0 24 23.5 A 3.4999998 3.4999998 0 0 0 24.039062 24.005859 A 3.4999998 3.4999998 0 0 1 27.5 21 A 3.4999998 3.4999998 0 0 1 30.960938 23.994141 A 3.4999998 3.4999998 0 0 0 31 23.5 A 3.4999998 3.4999998 0 0 0 27.5 20 z"/>
 <path style="opacity:0.2;fill:#ffffff" d="M 24.5 0 A 7.5 7.5 0 0 0 17 7.5 A 7.5 7.5 0 0 0 17.021484 8.0527344 A 7.5 7.5 0 0 1 24.5 1 A 7.5 7.5 0 0 1 31.978516 7.9472656 A 7.5 7.5 0 0 0 32 7.5 A 7.5 7.5 0 0 0 24.5 0 z"/>
</svg>

<svg xmlns="http://www.w3.org/2000/svg" width="32" height="32"><circle style="opacity:.2" cx="16" cy="17" r="14"/><circle style="fill:#3f3f3f" cx="16" cy="16" r="14"/><path style="fill:#fff;opacity:.1" d="M16 2A14 14 0 0 0 2 16a14 14 0 0 0 .021.586A14 14 0 0 1 16 3a14 14 0 0 1 13.979 13.414A14 14 0 0 0 30 16 14 14 0 0 0 16 2z"/><circle style="opacity:.2" cx="24.5" cy="8.5" r="7.5"/><circle style="opacity:.2" cx="27.5" cy="24.5" r="3.5"/><circle style="fill:#4f4f4f" cx="27.5" cy="23.5" r="3.5"/><circle style="fill:#a27a40" cx="24.5" cy="7.5" r="7.5"/><circle style="opacity:.2" cx="24.5" cy="8.5" r="4.5"/><circle style="fill:#f1b100" cx="24.5" cy="7.5" r="4.5"/><circle style="opacity:.2" cx="24.5" cy="8.5" r="1.5"/><circle style="fill:#fff" cx="24.5" cy="7.5" r="1.5"/><path style="opacity:.1;fill:#fff" d="M27.5 20a3.5 3.5 0 0 0-3.5 3.5 3.5 3.5 0 0 0 .04.506A3.5 3.5 0 0 1 27.5 21a3.5 3.5 0 0 1 3.46 2.994A3.5 3.5 0 0 0 31 23.5a3.5 3.5 0 0 0-3.5-3.5z"/><path style="opacity:.2;fill:#fff" d="M24.5 0A7.5 7.5 0 0 0 17 7.5a7.5 7.5 0 0 0 .021.553A7.5 7.5 0 0 1 24.5 1a7.5 7.5 0 0 1 7.479 6.947A7.5 7.5 0 0 0 32 7.5 7.5 7.5 0 0 0 24.5 0z"/></svg>
